X:5134
T:The Session-Widow's Lament
M:6/8
L:1/8
C:Aidan Crossey
R:Jig
K:G
|:D|GFG A2G|F2G A2c|BAG A2F|DGF G2D|
GFG A2G|F2G A2c|BAG A2F|DGF G2B|
dcd e2d|c2B ABc|dcB cBA|BAG DEF|
GFG A2G|F2G A2c|BAG A2F|D2G G2:||
